X:1
T:[ID 4-51r]
T:[ID 4-51r]
T:Bezeichnung standardisiert: Menuet [mit Trio] Menuet [mit Trio] In dieser Quelle auch als: Menuetto
T:Urheber unbekannt Erstbeleg: 1767 (Datum in der schriftlichen Quelle) Datum in der hier transkribierten schriftlichen Quelle: 1773
C:Urheber unbekannt
C:Erstbeleg: 1767 (Datum in der schriftlichen Quelle)
C:Datum in der hier transkribierten schriftlichen Quelle: 1773
L:1/8
M:3/4
K:F
V:1 treble 
V:1
 c2 | (fa)(fa)(fa) | b4 ge | (fa)(fa)(fa) | g2 c2 c2 | (fa)(fa)(fa) | b4 ge | fgabge | f4 :| %9
[M:3/4]"^Trio pi" (!fermata!ab) | c'4 d'c' | (c'b)(ba) a2 | c'2 c'2 d'c' | (c'b)(ba) a2 | %14
 (fa)(fa)(fa) | b4 ge | fgabge | f4 :: F4 G2 | A3 B c2 | A3 B c2 | cB A2 G2 | F4 G2 | A3 B c2 | %24
 c2 (cB)(BA) |{A} G6 :: A2 (AG)(GF) | F4 z2 | B2 (BA)(AG) | G4 z2 | c2 c2 c2 |{^c} d3 =c B2 | %32
 A3 B G2 | F6 :| %34

